src/assets/browser.svg

<svg width="16" height="16" viewBox="0 0 16 16" fill="none" xmlns="http://www.w3.org/2000/svg">
<g clip-path="url(#clip0_1_305)">
<path d="M14 0.666718H2C1.46957 0.666718 0.960859 0.877431 0.585786 1.2525C0.210714 1.62758 0 2.13628 0 2.66672L0 15.3334H16V2.66672C16 2.13628 15.7893 1.62758 15.4142 1.2525C15.0391 0.877431 14.5304 0.666718 14 0.666718ZM2 2.00005H14C14.1768 2.00005 14.3464 2.07029 14.4714 2.19531C14.5964 2.32034 14.6667 2.48991 14.6667 2.66672V4.66672H1.33333V2.66672C1.33333 2.48991 1.40357 2.32034 1.5286 2.19531C1.65362 2.07029 1.82319 2.00005 2 2.00005ZM1.33333 14.0001V6.00005H14.6667V14.0001H1.33333ZM3.33333 8.00005H12.6667V9.33338H3.33333V8.00005ZM3.33333 10.6667H10V12.0001H3.33333V10.6667ZM2 3.33338C2 3.20153 2.0391 3.07264 2.11235 2.963C2.18561 2.85337 2.28973 2.76792 2.41154 2.71746C2.53336 2.66701 2.66741 2.6538 2.79673 2.67953C2.92605 2.70525 3.04484 2.76874 3.13807 2.86198C3.23131 2.95521 3.2948 3.074 3.32052 3.20332C3.34625 3.33264 3.33305 3.46669 3.28259 3.58851C3.23213 3.71032 3.14668 3.81444 3.03705 3.8877C2.92741 3.96095 2.79852 4.00005 2.66667 4.00005C2.48986 4.00005 2.32029 3.92981 2.19526 3.80479C2.07024 3.67976 2 3.5102 2 3.33338ZM4 3.33338C4 3.20153 4.0391 3.07264 4.11235 2.963C4.18561 2.85337 4.28973 2.76792 4.41154 2.71746C4.53336 2.66701 4.66741 2.6538 4.79673 2.67953C4.92605 2.70525 5.04484 2.76874 5.13807 2.86198C5.23131 2.95521 5.2948 3.074 5.32052 3.20332C5.34625 3.33264 5.33305 3.46669 5.28259 3.58851C5.23213 3.71032 5.14668 3.81444 5.03705 3.8877C4.92741 3.96095 4.79852 4.00005 4.66667 4.00005C4.48986 4.00005 4.32029 3.92981 4.19526 3.80479C4.07024 3.67976 4 3.5102 4 3.33338ZM6 3.33338C6 3.20153 6.0391 3.07264 6.11235 2.963C6.18561 2.85337 6.28973 2.76792 6.41154 2.71746C6.53336 2.66701 6.66741 2.6538 6.79673 2.67953C6.92605 2.70525 7.04484 2.76874 7.13807 2.86198C7.23131 2.95521 7.2948 3.074 7.32052 3.20332C7.34625 3.33264 7.33305 3.46669 7.28259 3.58851C7.23213 3.71032 7.14668 3.81444 7.03705 3.8877C6.92741 3.96095 6.79852 4.00005 6.66667 4.00005C6.48986 4.00005 6.32029 3.92981 6.19526 3.80479C6.07024 3.67976 6 3.5102 6 3.33338Z" fill="#7F858D"/>
</g>
<defs>
<clipPath id="clip0_1_305">
<rect width="16" height="16" fill="white"/>
</clipPath>
</defs>
</svg>

<svg width="16" height="16" fill="none" xmlns="http://www.w3.org/2000/svg">
  <g clip-path="url(#prefix__clip0_1_305)">
    <path
      d="M14 .667H2a2 2 0 00-2 2v12.666h16V2.667a2 2 0 00-2-2zM2 2h12a.667.667 0 01.667.667v2H1.333v-2A.667.667 0 012 2zm-.667 12V6h13.334v8H1.333zm2-6h9.334v1.333H3.333V8zm0 2.667H10V12H3.333v-1.333zM2 3.333a.667.667 0 111.333 0 .667.667 0 01-1.333 0zm2 0a.667.667 0 111.333 0 .667.667 0 01-1.333 0zm2 0a.667.667 0 111.333 0 .667.667 0 01-1.333 0z"
      fill="currentColor" />
  </g>
</svg>
